brandFactory_export/2.Regular/Cara emoji triste_2Regular.svg

<?xml version="1.0" encoding="UTF-8"?>
<svg width="24px" height="24px" viewBox="0 0 24 24" version="1.1" xmlns="http://www.w3.org/2000/svg" xmlns:xlink="http://www.w3.org/1999/xlink">
    <title>2.Regular/Cara emoji triste_2Regular</title>
    <g id="Symbols" stroke="none" stroke-width="1" fill="none" fill-rule="evenodd">
        <g id="2.Regular/Cara-emoji-triste_2Regular" fill="#5CB615" fill-rule="nonzero">
            <path d="M11.9159664,13.697479 C16.3731092,13.7445378 18.9882353,16.594958 19.0991597,16.7159664 C19.3714286,17.0218487 19.3478992,17.4857143 19.0453782,17.7579832 C18.9042017,17.8857143 18.7260504,17.9462185 18.5512605,17.9462185 C18.3495798,17.9462185 18.1512605,17.8655462 18.0033613,17.7042017 C17.9798319,17.6806723 15.6907563,15.2134454 11.8789916,15.1731092 C11.8184874,15.1798319 7.95966387,15.0521008 5.6302521,17.6571429 C5.35798319,17.9630252 4.89411765,17.9865546 4.58823529,17.7176471 C4.28571429,17.4453782 4.25882353,16.9781513 4.52773109,16.6756303 C7.32773109,13.5361345 11.7310924,13.6907563 11.9159664,13.697479 L11.9159664,13.697479 Z M11.8084034,22.1478992 C18.7630252,22.1478992 22.1478992,18.7663866 22.1478992,11.8151261 C22.1478992,4.8605042 18.7663866,1.47563025 11.8084034,1.47563025 C4.85714286,1.47563025 1.47563025,4.85714286 1.47563025,11.8151261 C1.47563025,18.7663866 4.85714286,22.1478992 11.8084034,22.1478992 Z M11.8084034,0 C19.2705882,0 23.6235294,3.76806723 23.6235294,11.8151261 C23.6235294,19.8621849 19.2705882,23.6235294 11.8084034,23.6235294 C4.34621849,23.6235294 0,19.8621849 0,11.8151261 C0,3.76806723 4.34621849,0 11.8084034,0 Z M8.22857143,10.0705882 C7.80168067,10.0705882 7.44537815,9.93613445 7.19663866,9.68403361 C6.9512605,9.43529412 6.8302521,9.09243697 6.8302521,8.66890756 C6.8302521,7.80168067 7.36806723,7.26386555 8.22857143,7.26386555 C9.09243697,7.26386555 9.62689076,7.80168067 9.62689076,8.66890756 C9.62689076,9.09243697 9.50252101,9.43529412 9.2605042,9.68403361 C9.01176471,9.93613445 8.65546218,10.0705882 8.22857143,10.0705882 L8.22857143,10.0705882 Z M15.394958,10.0705882 C14.9680672,10.0705882 14.6117647,9.93613445 14.3630252,9.68403361 C14.1176471,9.43193277 13.9966387,9.08907563 13.9966387,8.66890756 C13.9966387,7.80168067 14.5344538,7.26386555 15.394958,7.26386555 C16.2588235,7.26386555 16.7932773,7.80168067 16.7932773,8.66890756 C16.7932773,9.09243697 16.6689076,9.43529412 16.4235294,9.68403361 C16.1781513,9.93613445 15.8218487,10.0705882 15.394958,10.0705882 L15.394958,10.0705882 Z" id="Cara-emoji-triste_2Regular"></path>
        </g>
    </g>
</svg>

<svg width="24" height="24" viewBox="0 0 24 24" xmlns="http://www.w3.org/2000/svg"><path d="M11.916 13.697c4.457.048 7.072 2.898 7.183 3.019a.738.738 0 01-1.096.988c-.023-.023-2.312-2.49-6.124-2.53-.06.006-3.92-.122-6.249 2.483a.739.739 0 01-1.102-.981c2.8-3.14 7.203-2.985 7.388-2.979zm-.108 8.45c6.955 0 10.34-3.38 10.34-10.332 0-6.954-3.382-10.34-10.34-10.34-6.95 0-10.332 3.382-10.332 10.34 0 6.951 3.381 10.333 10.332 10.333zm0-22.147c7.463 0 11.816 3.768 11.816 11.815S19.27 23.624 11.808 23.624C4.346 23.624 0 19.862 0 11.815 0 3.768 4.346 0 11.808 0zm-3.58 10.07c-.426 0-.783-.134-1.031-.386-.246-.249-.367-.592-.367-1.015 0-.867.538-1.405 1.399-1.405.863 0 1.398.538 1.398 1.405 0 .423-.124.766-.366 1.015-.25.252-.606.387-1.032.387zm7.167 0c-.427 0-.783-.134-1.032-.386-.245-.252-.366-.595-.366-1.015 0-.867.537-1.405 1.398-1.405.864 0 1.398.538 1.398 1.405 0 .423-.124.766-.37 1.015-.245.252-.601.387-1.028.387z" fill="#5CB615" fill-rule="nonzero"/></svg>
